static/assets/images/icons/api.svg

<svg width="256" height="256" viewBox="0 0 256 256" fill="none" xmlns="http://www.w3.org/2000/svg">
<path d="M128 147.091L108.909 128L128 108.909L147.091 128L128 147.091ZM107.955 92.4134L84.0909 66.9091L128 23L171.909 66.9091L148.045 92.4134L128 72.3679L107.955 92.4134ZM66.9091 171.909L23 128L66.9091 84.0909L92.4134 107.955L72.3679 128L92.4134 148.045L66.9091 171.909ZM189.091 171.909L163.587 148.045L183.632 128L163.587 107.955L189.091 84.0909L233 128L189.091 171.909ZM128 233L84.0909 189.091L107.955 163.587L128 183.632L148.045 163.587L171.909 189.091L128 233Z" fill="black"/>
</svg>

<svg xmlns="http://www.w3.org/2000/svg" fill="none" viewBox="0 0 256 256"><path fill="#000" d="M128 147.091 108.909 128 128 108.909 147.091 128zm-20.045-54.678L84.091 66.91 128 23l43.909 43.91-23.864 25.503L128 72.368zM66.909 171.91 23 128l43.91-43.91 25.503 23.865L72.368 128l20.045 20.045zm122.182 0-25.504-23.864L183.632 128l-20.045-20.045 25.504-23.864L233 128zM128 233l-43.91-43.909 23.865-25.504L128 183.632l20.045-20.045 23.864 25.504z"/></svg>
